src/assets/filled/Lamp1.svg

<svg width="24" height="24" viewBox="0 0 24 24"  xmlns="http://www.w3.org/2000/svg">
<path d="M12.5 5.48027C12.58 5.48027 12.66 5.48027 12.75 5.49027V2.53027C12.75 2.12027 12.41 1.78027 12 1.78027C11.59 1.78027 11.25 2.12027 11.25 2.53027V5.49027C11.33 5.48027 11.41 5.48027 11.5 5.48027C6.88997 5.71027 3.21997 9.51027 3.21997 14.1803V16.1203C3.21997 17.2203 4.11997 18.1203 5.21997 18.1203H18.78C19.88 18.1203 20.78 17.2203 20.78 16.1203V14.1803C20.78 9.51027 17.11 5.71027 12.5 5.48027Z" />
<path d="M14.7299 19.1104C15.0599 19.1104 15.2999 19.4204 15.2199 19.7404C14.8399 21.1704 13.5399 22.2204 11.9999 22.2204C10.4599 22.2204 9.15989 21.1704 8.77989 19.7404C8.69989 19.4204 8.93989 19.1104 9.26989 19.1104H14.7299Z" />
</svg>

<?xml version="1.0" encoding="UTF-8"?>
<svg width="24" height="24" viewBox="0 0 24 24" xmlns="http://www.w3.org/2000/svg">
 <path d="m12.5 5.4803c0.08 0 0.16 0 0.25 0.01v-2.96c0-0.41-0.34-0.75-0.75-0.75s-0.75 0.34-0.75 0.75v2.96c0.08-0.01 0.16-0.01 0.25-0.01-4.61 0.23-8.28 4.03-8.28 8.7v1.94c0 1.1 0.9 2 2 2h13.56c1.1 0 2-0.9 2-2v-1.94c0-4.67-3.67-8.47-8.28-8.7z"/>
 <path d="m14.73 19.11c0.33 0 0.57 0.31 0.49 0.63-0.38 1.43-1.68 2.48-3.22 2.48s-2.84-1.05-3.22-2.48c-0.08-0.32 0.16-0.63 0.49-0.63h5.46z"/>
</svg>
